X: 32609
T: Planxty Sweeney
R: waltz
M: 3/4
K: Gmajor
G2|"C"E3DE2|"G"G4D2|"C"E3DE2|"G"G4B2|"G"d2c2B2|"D"A2G2A2|"G"B2A2G2|"D"A2B2G2|
"C"E3DE2|"G"G4D2|"C"E3DE2|"G"G4B2|"G"d2c2B2|"D"A2G2A2|"G"B2G2"C"G2|"G"G4G2||
"G"G3AB2|"C"c4c2|"G"B2d2c2|B2A2G2|"D"A3BA2|"D"A2B2c2|"G"d2c2B2|"D"A4G2|
"C"E3DE2|"G"G4D2|"C"E3DE2|"G"G4e2|"G"d2c2B2|"D"A2G2A2|"G"B2G2"C"G2|"G"G4||

